packages/sources/assets/src/assets/flag-ms.svg

<svg width="28" height="20" viewBox="0 0 28 20" fill="none" xmlns="http://www.w3.org/2000/svg">
<rect width="28" height="20" rx="2" fill="white"/>
<mask id="mask0_503_4949" style="mask-type:alpha" maskUnits="userSpaceOnUse" x="0" y="0" width="28" height="20">
<rect width="28" height="20" rx="2" fill="white"/>
</mask>
<g mask="url(#mask0_503_4949)">
<rect width="28" height="20" fill="#07319C"/>
<path fill-rule="evenodd" clip-rule="evenodd" d="M17.3335 9.99998C17.3335 8.90624 17.3335 7.61312 17.3335 6.6658C17.3335 5.92942 17.9304 5.33331 18.6668 5.33331H22.6668C23.4032 5.33331 24.0002 5.92942 24.0002 6.6658C24.0002 7.61313 24.0002 8.90624 24.0002 9.99998C24.0002 13.3333 20.6668 14.6666 20.6668 14.6666C20.6668 14.6666 17.3335 13.3333 17.3335 9.99998Z" fill="#08B9D6"/>
<mask id="mask1_503_4949" style="mask-type:alpha" maskUnits="userSpaceOnUse" x="17" y="5" width="8" height="10">
<path fill-rule="evenodd" clip-rule="evenodd" d="M17.3335 9.99998C17.3335 8.90624 17.3335 7.61312 17.3335 6.6658C17.3335 5.92942 17.9304 5.33331 18.6668 5.33331H22.6668C23.4032 5.33331 24.0002 5.92942 24.0002 6.6658C24.0002 7.61313 24.0002 8.90624 24.0002 9.99998C24.0002 13.3333 20.6668 14.6666 20.6668 14.6666C20.6668 14.6666 17.3335 13.3333 17.3335 9.99998Z" fill="white"/>
</mask>
<g mask="url(#mask1_503_4949)">
<path fill-rule="evenodd" clip-rule="evenodd" d="M17.3335 12H24.0002V14.6666H21.3335H20.0002H17.3335L17.3335 12Z" fill="#A63D09"/>
<path fill-rule="evenodd" clip-rule="evenodd" d="M21.3338 6.66663H20.0005V7.99996H18.667V9.33329H20.0005V12H21.3338V9.33329H22.667V7.99996H21.3338V6.66663Z" fill="#262626"/>
</g>
<path d="M0 -0.333333H-0.901086L-0.21693 0.253086L4.33333 4.15331V5.16179L-0.193746 8.39542L-0.333333 8.49513V8.66667V9.33333V9.93475L0.176666 9.616L5.42893 6.33333H6.55984L11.0821 9.56351C11.176 9.6306 11.2886 9.66667 11.404 9.66667C11.9182 9.66667 12.1548 9.02698 11.7644 8.69237L7.66667 5.18002V4.17154L12.0542 1.03762C12.2294 0.912475 12.3333 0.710428 12.3333 0.495127V0V-0.601416L11.8233 -0.282666L6.57107 3H5.44016L0.860413 -0.271244L0.773488 -0.333333H0.666667H0Z" fill="#DB1E36" stroke="white" stroke-width="0.666667"/>
<path fill-rule="evenodd" clip-rule="evenodd" d="M0 3.33333V6H4.66667V9.33333C4.66667 9.70152 4.96514 10 5.33333 10H6.66667C7.03486 10 7.33333 9.70152 7.33333 9.33333V6H12C12.3682 6 12.6667 5.70152 12.6667 5.33333V4C12.6667 3.63181 12.3682 3.33333 12 3.33333H7.33333V0H4.66667V3.33333H0Z" fill="white"/>
<path fill-rule="evenodd" clip-rule="evenodd" d="M0 4H5.33333V3.33333V0H6.66667V3.33333V4H12V5.33333H6.66667V6V9.33333H5.33333V6V5.33333H0V4Z" fill="#DB1E36"/>
</g>
</svg>

<svg width="28" height="20" fill="none" xmlns="http://www.w3.org/2000/svg"><rect width="28" height="20" rx="2" fill="#fff"/><mask id="a" style="mask-type:alpha" maskUnits="userSpaceOnUse" x="0" y="0" width="28" height="20"><rect width="28" height="20" rx="2" fill="#fff"/></mask><g mask="url(#a)"><path fill="#07319C" d="M0 0h28v20H0z"/><path fill-rule="evenodd" clip-rule="evenodd" d="M17.334 10V6.666c0-.737.596-1.333 1.333-1.333h4c.736 0 1.333.596 1.333 1.333V10c0 3.333-3.333 4.667-3.333 4.667S17.333 13.333 17.333 10Z" fill="#08B9D6"/><mask id="b" style="mask-type:alpha" maskUnits="userSpaceOnUse" x="17" y="5" width="8" height="10"><path fill-rule="evenodd" clip-rule="evenodd" d="M17.334 10V6.666c0-.737.596-1.333 1.333-1.333h4c.736 0 1.333.596 1.333 1.333V10c0 3.333-3.333 4.667-3.333 4.667S17.333 13.333 17.333 10Z" fill="#fff"/></mask><g mask="url(#b)" fill-rule="evenodd" clip-rule="evenodd"><path d="M17.334 12H24v2.667h-6.666V12Z" fill="#A63D09"/><path d="M21.334 6.667H20V8h-1.333v1.333H20V12h1.334V9.333h1.333V8h-1.333V6.667Z" fill="#262626"/></g><path d="M0-.333h-.901l.684.586 4.55 3.9v1.009L-.194 8.395l-.14.1v1.44l.51-.319L5.43 6.333h1.13l4.523 3.23a.554.554 0 0 0 .682-.87L7.667 5.18V4.172l4.387-3.134a.667.667 0 0 0 .28-.543V-.6l-.51.318L6.57 3H5.44L.86-.271.772-.333H0Z" fill="#DB1E36" stroke="#fff" stroke-width=".667"/><path fill-rule="evenodd" clip-rule="evenodd" d="M0 3.333V6h4.667v3.333c0 .369.298.667.666.667h1.334a.667.667 0 0 0 .666-.667V6H12a.667.667 0 0 0 .667-.667V4A.667.667 0 0 0 12 3.333H7.333V0H4.667v3.333H0Z" fill="#fff"/><path fill-rule="evenodd" clip-rule="evenodd" d="M0 4h5.333V0h1.334v4H12v1.333H6.667v4H5.333v-4H0V4Z" fill="#DB1E36"/></g></svg>
